src/images/menu.svg

<svg fill="none" height="44" viewBox="0 0 44 44" width="44" xmlns="http://www.w3.org/2000/svg"><g clip-rule="evenodd" fill="#fff" fill-rule="evenodd"><path d="m36 14h-28v-3h28z"/><path d="m36 24h-28v-3h28z"/><path d="m36 34h-28v-3h28z"/></g></svg>

<svg width="44" height="44" viewBox="0 0 44 44" fill="none" xmlns="http://www.w3.org/2000/svg">
<g id="icon__COLOR:icon-main">
<path id="icon__COLOR:icon-main_2" fill-rule="evenodd" clip-rule="evenodd" d="M36 14L8 14V11L36 11V14Z" fill="white"/>
<path id="icon__COLOR:icon-main_3" fill-rule="evenodd" clip-rule="evenodd" d="M36 24L8 24V21L36 21V24Z" fill="white"/>
<path id="icon__COLOR:icon-main_4" fill-rule="evenodd" clip-rule="evenodd" d="M36 34L8 34V31L36 31V34Z" fill="white"/>
</g>
</svg>
